apps/18/whatsapp.svg

<?xml version="1.0" encoding="UTF-8" standalone="no"?>
<!-- Created with Inkscape (http://www.inkscape.org/) -->

<svg
   xmlns:dc="http://purl.org/dc/elements/1.1/"
   xmlns:cc="http://creativecommons.org/ns#"
   xmlns:rdf="http://www.w3.org/1999/02/22-rdf-syntax-ns#"
   xmlns:svg="http://www.w3.org/2000/svg"
   xmlns="http://www.w3.org/2000/svg"
   xmlns:sodipodi="http://sodipodi.sourceforge.net/DTD/sodipodi-0.dtd"
   xmlns:inkscape="http://www.inkscape.org/namespaces/inkscape"
   version="1.1"
   width="18"
   height="18"
   id="svg2"
   inkscape:version="0.92.2 5c3e80d, 2017-08-06"
   sodipodi:docname="whatsapp.svg">
  <sodipodi:namedview
     pagecolor="#ffffff"
     bordercolor="#666666"
     borderopacity="1"
     objecttolerance="10"
     gridtolerance="10"
     guidetolerance="10"
     inkscape:pageopacity="0"
     inkscape:pageshadow="2"
     inkscape:window-width="1920"
     inkscape:window-height="1023"
     id="namedview6"
     showgrid="true"
     inkscape:zoom="32"
     inkscape:cx="-0.824908"
     inkscape:cy="7.8335184"
     inkscape:window-x="-10"
     inkscape:window-y="35"
     inkscape:window-maximized="1"
     inkscape:current-layer="svg2"
     inkscape:snap-global="false">
    <inkscape:grid
       type="xygrid"
       id="grid2982"
       empspacing="5"
       visible="true"
       enabled="true"
       snapvisiblegridlinesonly="true" />
  </sodipodi:namedview>
  <defs
     id="defs4" />
  <metadata
     id="metadata7">
    <rdf:RDF>
      <cc:Work
         rdf:about="">
        <dc:format>image/svg+xml</dc:format>
        <dc:type
           rdf:resource="http://purl.org/dc/dcmitype/StillImage" />
        <dc:title></dc:title>
      </cc:Work>
    </rdf:RDF>
  </metadata>
  <path
     style="color:#000000;display:inline;overflow:visible;visibility:visible;fill:none;fill-opacity:1;fill-rule:nonzero;stroke:#27303a;stroke-width:1;stroke-miterlimit:4;stroke-dasharray:none;stroke-opacity:0.75294118;marker:none;enable-background:accumulate"
     d="m 9.0469528,1.458201 c -4.1479436,0 -7.5154566,3.3573842 -7.5154566,7.5053279 0,1.4189111 0.3998192,2.7472661 1.0837652,3.8792731 L 1.2580228,16.874004 5.4107683,15.54715 c 1.0760375,0.595265 2.3194604,0.931836 3.6361845,0.931836 4.1477962,0 7.5053292,-3.367661 7.5053292,-7.5154571 0,-4.1479437 -3.357533,-7.5053279 -7.5053292,-7.5053279 z"
     id="path969"
     inkscape:connector-curvature="0" />
  <path
     style="color:#000000;display:inline;overflow:visible;visibility:visible;opacity:1;vector-effect:none;fill:#f1f3f5;fill-opacity:0.90288714;fill-rule:nonzero;stroke:none;stroke-width:1.85164511;stroke-linecap:butt;stroke-linejoin:miter;stroke-miterlimit:4;stroke-dasharray:none;stroke-dashoffset:0;stroke-opacity:1;marker:none;enable-background:accumulate"
     d="m 9.0351562,1.9414063 c -3.900584,0 -7.0488281,3.1379612 -7.0488281,7.0371093 0,1.3314144 0.3732447,2.5735084 1.015625,3.6367184 l 0.2148438,0.34961 -1.0058594,2.986328 3.0820313,-0.984375 0.3339843,0.185547 c 1.0067182,0.556917 2.169221,0.873047 3.4082031,0.873047 3.8989538,0 7.0371098,-3.146485 7.0371098,-7.0468754 0,-3.900563 -3.136698,-7.0371091 -7.0371098,-7.0371093 z M 8.90625,2.9257812 H 8.9082 c 0.245603,-5.303e-4 0.493644,-0.00144 0.7421875,0.00977 a 0.09540029,0.09540029 0 0 1 0.00391,0 c 1.0537485,0.089129 2.0718745,0.4942887 2.9257815,1.109375 h 0.002 c 1.284689,0.9154423 2.172447,2.3462496 2.44336,3.8984375 a 0.09540029,0.09540029 0 0 0 0,0.00195 c 0.08602,0.5742031 0.06886,1.1297873 0.04297,1.7050783 a 0.09540029,0.09540029 0 0 1 0,0.0059 c -0.195643,1.733919 -1.176604,3.366865 -2.632812,4.335938 l -0.002,0.002 C 10.866196,15.070454 8.7830315,15.336879 6.9980469,14.675781 6.4000476,14.5011 5.9207381,14.090619 5.3535156,14.066406 4.847623,14.107615 4.3583869,14.316691 3.84375,14.458984 A 0.09540029,0.09540029 0 0 1 3.7285156,14.337891 c 0.089208,-0.270664 0.1773641,-0.539629 0.2597656,-0.810547 a 0.09540029,0.09540029 0 0 1 0.00195,-0.0078 C 4.142103,13.126367 4.1591996,12.67955 3.9667969,12.308594 3.3671373,11.325105 2.9757598,10.193026 2.9765625,9.025391 2.9381004,6.9172919 4.0987612,4.8525045 5.9101562,3.7773438 6.8083266,3.2485379 7.8455725,2.8953349 8.90625,2.9257812 Z M 6.6015625,5.6191406 c -0.115486,0 -0.2983436,0.04538 -0.4570313,0.21875 -0.1588288,0.1733703 -0.6093749,0.5872838 -0.609375,1.4394532 0,0.8523101 0.6185343,1.6755295 0.7050782,1.7910152 0.086685,0.115628 1.2019383,1.927612 2.9628906,2.621094 1.761093,0.69334 1.760608,0.458488 2.078125,0.429688 0.317515,-0.02895 1.027445,-0.415971 1.171875,-0.820313 0.144287,-0.404484 0.138902,-0.755839 0.0957,-0.828125 -0.04334,-0.07228 -0.160753,-0.114346 -0.333981,-0.201172 -0.173087,-0.08654 -1.022814,-0.504757 -1.181641,-0.5625 -0.158829,-0.05774 -0.275137,-0.08744 -0.390625,0.08594 -0.115485,0.17337 -0.441883,0.562249 -0.542969,0.677734 -0.101085,0.115484 -0.2077706,0.13342 -0.380859,0.04687 C 9.5455205,10.430752 8.9898402,10.250011 8.328125,9.660156 7.8132376,9.201035 7.4663189,8.6323548 7.3652344,8.4589844 7.2641488,8.2856141 7.3547223,8.193683 7.4414062,8.1074219 7.5193439,8.0297685 7.6107205,7.902009 7.6972656,7.8007812 7.7839502,7.6996949 7.811397,7.6216276 7.8691406,7.5058594 7.9268781,7.3903741 7.9027169,7.2976232 7.859375,7.2109375 7.81604,7.1242526 7.4704587,6.2705689 7.3261719,5.9238281 7.1818843,5.5770875 7.0366328,5.6289062 6.9355469,5.6289062 c -0.1010858,0 -0.2184979,-0.00977 -0.3339844,-0.00977 z"
     id="path899"
     inkscape:connector-curvature="0" />
  <path
     id="path847"
     d="M 8.90625,2.9257812 C 7.8455725,2.8953349 6.8083266,3.2485379 5.9101562,3.7773438 4.0987612,4.8525045 2.9381004,6.9172919 2.9765625,9.025391 c -8.027e-4,1.167635 0.3905748,2.299714 0.9902344,3.283203 0.1924027,0.370956 0.1753061,0.817773 0.023437,1.210937 a 0.09540029,0.09540029 0 0 0 -0.00195,0.0078 c -0.082402,0.270918 -0.1705571,0.539883 -0.2597656,0.810547 A 0.09540029,0.09540029 0 0 0 3.84375,14.458984 c 0.5146369,-0.142293 1.003873,-0.351369 1.5097656,-0.392578 0.5672225,0.02421 1.046532,0.434694 1.6445313,0.609375 1.7849846,0.661098 3.8681491,0.394673 5.4355471,-0.68164 l 0.002,-0.002 c 1.456208,-0.969073 2.437169,-2.602019 2.632812,-4.335938 a 0.09540029,0.09540029 0 0 0 0,-0.0059 c 0.0259,-0.575291 0.04306,-1.130875 -0.04297,-1.7050781 a 0.09540029,0.09540029 0 0 0 0,-0.00195 C 14.754478,6.3911715 13.86672,4.9603642 12.582031,4.0449219 h -0.002 C 11.726171,3.4298356 10.708046,3.0246758 9.6542969,2.9355469 a 0.09540029,0.09540029 0 0 0 -0.00391,0 C 9.4018471,2.924343 9.1538061,2.9252509 8.9082031,2.9257812 Z M 6.6015625,5.6191406 c 0.1154865,0 0.2328986,0.00977 0.3339844,0.00977 0.1010859,0 0.2463374,-0.051819 0.390625,0.2949219 C 7.4704587,6.2705733 7.81604,7.124257 7.859375,7.2109419 7.902717,7.2976279 7.926878,7.3903785 7.869145,7.5058638 7.811397,7.6216276 7.7839502,7.6996948 7.6972656,7.8007812 7.6107205,7.902009 7.5193439,8.0297685 7.4414062,8.1074219 7.3547223,8.193683 7.2641488,8.2856141 7.3652344,8.4589844 7.4663189,8.6323548 7.8132376,9.201035 8.328125,9.660156 c 0.6617152,0.589855 1.2173955,0.770596 1.390625,0.857422 0.1730884,0.08655 0.279774,0.06861 0.380859,-0.04687 0.101086,-0.115485 0.427484,-0.504364 0.542969,-0.677734 0.115488,-0.173373 0.231796,-0.143675 0.390625,-0.08594 0.158827,0.05774 1.008554,0.475956 1.181641,0.5625 0.173228,0.08683 0.29064,0.128892 0.333984,0.201172 0.0432,0.07229 0.04858,0.423641 -0.0957,0.828125 -0.14443,0.404342 -0.85436,0.791363 -1.171875,0.820313 -0.317517,0.0288 -0.317032,0.263652 -2.078125,-0.429688 C 7.4421727,10.995971 6.3269194,9.183987 6.2402344,9.068359 6.1536905,8.9528733 5.5351562,8.1296539 5.5351562,7.2773438 c 10e-8,-0.8521694 0.4505462,-1.2660829 0.609375,-1.4394532 0.1586877,-0.1733704 0.3415453,-0.21875 0.4570313,-0.21875 z"
     style="opacity:1;vector-effect:none;fill:#27303a;fill-opacity:0.75328082;fill-rule:nonzero;stroke:none;stroke-width:1;stroke-linecap:butt;stroke-linejoin:miter;stroke-miterlimit:4;stroke-dasharray:none;stroke-dashoffset:0;stroke-opacity:1;marker:none"
     inkscape:connector-curvature="0" />
</svg>

<?xml version="1.0" encoding="UTF-8"?>
<svg id="a" width="18" height="18" version="1.1" xmlns="http://www.w3.org/2000/svg" xmlns:cc="http://creativecommons.org/ns#" xmlns:dc="http://purl.org/dc/elements/1.1/" xmlns:rdf="http://www.w3.org/1999/02/22-rdf-syntax-ns#">
	<metadata id="c">
		<rdf:RDF>
			<cc:Work rdf:about="">
				<dc:format>image/svg+xml</dc:format>
				<dc:type rdf:resource="http://purl.org/dc/dcmitype/StillImage"/>
				<dc:title/>
			</cc:Work>
		</rdf:RDF>
	</metadata>
	<defs>
		<style id="current-color-scheme" type="text/css">.ColorScheme-Text {color:#090d11;}.ColorScheme-Background{color:#ffffff;}</style>
	</defs>
	<path id="b" d="m9.0469 0.95898c-4.4177 0-8.0156 3.5853-8.0156 8.0039 0 1.4191 0.40259 2.7406 1.0508 3.8965l-1.6133 4.791 4.9297-1.5742c1.0977 0.56322 2.334 0.90234 3.6484 0.90234 4.4184 0 8.0059-3.598 8.0059-8.0156 0-4.4178-3.5882-8.0039-8.0059-8.0039zm0 1c3.878 0 7.0059 3.1258 7.0059 7.0039 0 3.878-3.1287 7.0156-7.0059 7.0156-1.2315 0-2.3914-0.31421-3.3945-0.86914l-0.1875-0.10352-3.418 1.0918 1.1172-3.3145-0.12109-0.19922c-0.63902-1.0576-1.0117-2.2961-1.0117-3.6211 0-3.8773 3.1375-7.0039 7.0156-7.0039zm-0.14062 0.9668c-1.0607-0.030446-2.0979 0.32276-2.9961 0.85156-1.8114 1.0752-2.9721 3.1399-2.9336 5.248-8.027e-4 1.1676 0.39057 2.2997 0.99023 3.2832 0.1924 0.37096 0.17531 0.81777 0.023438 1.2109a0.0954 0.0954 0 0 0-0.0019532 0.007813c-0.082402 0.27092-0.17056 0.53988-0.25977 0.81055a0.0954 0.0954 0 0 0 0.11523 0.12109c0.51464-0.14229 1.0039-0.35137 1.5098-0.39258 0.56722 0.02421 1.0465 0.43469 1.6445 0.60938 1.785 0.6611 3.8681 0.39467 5.4355-0.68164l0.001953-0.001953c1.4562-0.96907 2.4372-2.602 2.6328-4.3359a0.0954 0.0954 0 0 0 0-0.0058594c0.0259-0.57529 0.043062-1.1309-0.042968-1.7051a0.0954 0.0954 0 0 0 0-0.0019531c-0.27096-1.5521-1.1587-2.983-2.4434-3.8984h-0.001953c-0.85386-0.61509-1.872-1.0202-2.9258-1.1094a0.0954 0.0954 0 0 0-0.0039063 0c-0.24854-0.011204-0.49658-0.010296-0.74219-0.0097657h-0.0019531zm-2.3047 2.6934c0.11549 0 0.2329 0.0097656 0.33398 0.0097656 0.10109 0 0.24634-0.051819 0.39062 0.29492 0.14429 0.34674 0.48987 1.2004 0.5332 1.2871 0.043342 0.086686 0.067499 0.17944 0.0097656 0.29492-0.057748 0.11576-0.08519 0.19384-0.17188 0.29492-0.086545 0.10123-0.17792 0.22899-0.25586 0.30664-0.086684 0.086261-0.17726 0.17819-0.076172 0.35156 0.10108 0.17337 0.448 0.74205 0.96289 1.2012 0.66172 0.58985 1.2174 0.7706 1.3906 0.85742 0.17309 0.08655 0.27977 0.068605 0.38086-0.046875 0.10109-0.11548 0.42748-0.50436 0.54297-0.67773 0.11549-0.17337 0.2318-0.14367 0.39062-0.085938 0.15883 0.05774 1.0086 0.47596 1.1816 0.5625 0.17323 0.08683 0.29064 0.12889 0.33398 0.20117 0.0432 0.07229 0.048577 0.42364-0.095703 0.82812-0.14443 0.40434-0.85436 0.79136-1.1719 0.82031-0.31752 0.0288-0.31703 0.26365-2.0781-0.42969-1.761-0.69348-2.8762-2.5055-2.9629-2.6211-0.086544-0.11549-0.70508-0.93871-0.70508-1.791 2e-7 -0.85217 0.45055-1.2661 0.60938-1.4395 0.15869-0.17337 0.34155-0.21875 0.45703-0.21875z" style="fill-opacity:.75;fill:currentColor" class="ColorScheme-Text"/>
	<path id="d" d="m9.0352 1.9414c-3.9006 0-7.0488 3.138-7.0488 7.0371 0 1.3314 0.37324 2.5735 1.0156 3.6367l0.21484 0.34961-1.0059 2.9863 3.082-0.98438 0.33398 0.18555c1.0067 0.55692 2.1692 0.87305 3.4082 0.87305 3.899 0 7.0371-3.1465 7.0371-7.0469 0-3.9006-3.1367-7.0371-7.0371-7.0371zm-0.12891 0.98437h0.00195c0.2456-5.303e-4 0.49364-0.00144 0.74219 0.00977a0.0954 0.0954 0 0 1 0.00391 0c1.0537 0.089129 2.0719 0.49429 2.9258 1.1094h2e-3c1.2847 0.91544 2.1724 2.3462 2.4434 3.8984a0.0954 0.0954 0 0 0 0 0.00195c0.08602 0.5742 0.06886 1.1298 0.04297 1.7051a0.0954 0.0954 0 0 1 0 0.0059c-0.19564 1.7339-1.1766 3.3669-2.6328 4.3359l-2e-3 2e-3c-1.5674 1.0762-3.6506 1.3426-5.4356 0.68155-0.598-0.17468-1.0773-0.58516-1.6445-0.60938-0.50589 0.041209-0.99513 0.25028-1.5098 0.39258a0.0954 0.0954 0 0 1-0.11523-0.12109c0.089208-0.27066 0.17736-0.53963 0.25977-0.81055a0.0954 0.0954 0 0 1 0.00195-0.0078c0.15187-0.39318 0.16897-0.83999-0.023434-1.211-0.59966-0.98349-0.99104-2.1156-0.99023-3.2832-0.038462-2.1081 1.1222-4.1729 2.9336-5.248 0.89817-0.52881 1.9354-0.88201 2.9961-0.85156zm-2.3047 2.6934c-0.11549 0-0.29834 0.04538-0.45703 0.21875-0.15883 0.17337-0.60937 0.58728-0.60938 1.4395 0 0.85231 0.61853 1.6755 0.70508 1.791 0.086685 0.11563 1.2019 1.9276 2.9629 2.6211 1.7611 0.69334 1.7606 0.45849 2.0781 0.42969 0.31752-0.02895 1.0274-0.41597 1.1719-0.82031 0.14429-0.40448 0.1389-0.75584 0.0957-0.82812-0.04334-0.07228-0.16075-0.11435-0.33398-0.20117-0.17309-0.08654-1.0228-0.50476-1.1816-0.5625-0.15883-0.05774-0.27514-0.08744-0.39062 0.08594-0.11548 0.17337-0.44188 0.56225-0.54297 0.67773-0.10108 0.11548-0.20777 0.13342-0.38086 0.04687-0.17323-0.086823-0.72891-0.26756-1.3906-0.85742-0.51489-0.45912-0.86181-1.0278-0.96289-1.2012-0.10109-0.17337-0.010512-0.2653 0.076172-0.35156 0.077938-0.077653 0.16931-0.20541 0.25586-0.30664 0.086685-0.10109 0.11413-0.17915 0.17188-0.29492 0.057738-0.11549 0.033576-0.20824-0.0097656-0.29492-0.043335-0.086685-0.38892-0.94037-0.5332-1.2871-0.14429-0.34674-0.28954-0.29492-0.39062-0.29492-0.10109 0-0.2185-0.00977-0.33398-0.00977z" style="fill-opacity:.5;fill:currentColor" class="ColorScheme-Background"/>
</svg>
